X:828
T:The widow Brady
R:Jig
O:Ireland
S:O'Neill's 1 & 2
B:O'Neill's 734 +2
Z:Transcription, arrangement, chords:Mike Long
M:6/8
L:1/8
K:D
d|\
"D"AFD DFA|"D"AFA "G"B2d|"D"AFD DFA|"G"fdB Bcd|\
"D"AFD DFA|"D"AFA "G"B2d|"D"def "A"{a}gfe|"D"fdd d2:|
|:d|\
"D"afd fed|"A"ecA Ace|"D"fed dcd|"A"ecA A2f/g/|\
"D"aba "A"gfe|"D"fed "A"cBA|"G"Bcd "A"efg|"D"fdd d2:|
